tools/download-figma-icons/icons/outlined-large/oeko.svg

<svg width="64" height="64" viewBox="0 0 64 64" fill="none" xmlns="http://www.w3.org/2000/svg">
<path fill-rule="evenodd" clip-rule="evenodd" d="M60.4842 18.4094C59.0372 23.1384 54.5582 26.4324 51.5052 28.1974L56.0762 13.2105C56.3172 12.4195 55.8712 11.5805 55.0792 11.3395C54.2912 11.0955 53.4492 11.5435 53.2072 12.3365L48.6362 27.3254C48.6142 27.2794 48.5922 27.2384 48.5692 27.1914C48.5292 27.1084 48.4892 27.0224 48.4492 26.9374C48.3462 26.7214 48.2432 26.4934 48.1402 26.2614C48.0962 26.1624 48.0532 26.0644 48.0092 25.9644C47.8922 25.6884 47.7752 25.4024 47.6602 25.1094C47.6372 25.0504 47.6132 24.9934 47.5892 24.9334C47.4553 24.5814 47.3253 24.2164 47.2003 23.8414C47.1682 23.7444 47.1383 23.6424 47.1073 23.5444C47.0173 23.2634 46.9313 22.9774 46.8503 22.6864C46.8133 22.5534 46.7783 22.4174 46.7433 22.2804C46.6713 22.0064 46.6073 21.7264 46.5463 21.4454C46.5173 21.3094 46.4873 21.1764 46.4613 21.0404C46.3903 20.6784 46.3303 20.3114 46.2813 19.9424C46.2743 19.8884 46.2633 19.8374 46.2563 19.7844C46.2053 19.3654 46.1713 18.9424 46.1523 18.5174C46.1463 18.3914 46.1483 18.2654 46.1453 18.1404C46.1393 17.8344 46.1413 17.5264 46.1543 17.2195C46.1613 17.0705 46.1713 16.9225 46.1823 16.7725C46.2053 16.4715 46.2413 16.1705 46.2863 15.8695C46.3063 15.7335 46.3223 15.5975 46.3473 15.4635C46.4253 15.0335 46.5213 14.6055 46.6503 14.1815C46.7793 13.7475 46.9463 13.2985 47.1623 12.8085C49.4492 7.76352 55.0792 4.58355 57.4962 3.40755C58.9642 5.93954 62.2641 12.5665 60.4842 18.4094ZM34.0303 22.9644C30.3974 18.0504 31.2944 10.7015 31.8314 7.82452C34.3493 8.10652 40.1493 9.11551 44.0233 12.5755C43.9313 12.8285 43.8493 13.0765 43.7783 13.3205C43.6293 13.8095 43.5173 14.3015 43.4223 14.7935C43.3973 14.9265 43.3753 15.0575 43.3523 15.1895C43.2833 15.6135 43.2283 16.0375 43.1943 16.4605C43.1883 16.5305 43.1773 16.6005 43.1723 16.6715C43.1393 17.1564 43.1313 17.6384 43.1383 18.1194C43.1413 18.2444 43.1473 18.3684 43.1513 18.4934C43.1663 18.8874 43.1923 19.2774 43.2303 19.6664C43.2403 19.7654 43.2473 19.8664 43.2573 19.9674C43.2953 20.2924 43.3413 20.6134 43.3923 20.9324L38.4393 14.2365C37.9463 13.5685 37.0053 13.4305 36.3423 13.9225C35.6763 14.4155 35.5363 15.3535 36.0283 16.0195L45.7663 29.1844C42.2973 28.5424 36.9733 26.9364 34.0303 22.9644ZM2.99959 33.2663V25.5304H21.4434V33.2663C21.4434 38.3543 17.3035 42.4943 12.2155 42.4943C7.13456 42.4943 2.99959 38.3543 2.99959 33.2663ZM59.3142 0.648576C58.9192 0.0745802 58.1772 -0.150418 57.5302 0.10358C57.1702 0.246579 49.3312 3.40155 45.3833 9.81551C39.5273 5.09054 31.0844 4.73454 30.6964 4.72154C30.0014 4.69954 29.3794 5.15654 29.1974 5.83054C29.0714 6.29853 26.1714 17.3824 31.6204 24.7484C35.9963 30.6553 44.2153 32.1283 47.5502 32.4883V44.0662C47.5502 53.3922 39.9633 60.9811 30.6354 60.9811C21.7534 60.9811 14.4635 54.0942 13.7875 45.3812C19.7885 44.6062 24.4424 39.4753 24.4424 33.2663V24.0304C24.4424 23.2024 23.7704 22.5304 22.9424 22.5304H19.4335V15.1555C19.4335 14.3275 18.7615 13.6555 17.9335 13.6555C17.1055 13.6555 16.4345 14.3275 16.4345 15.1555V22.5304H7.54655V15.1555C7.54655 14.3275 6.87556 13.6555 6.04656 13.6555C5.21857 13.6555 4.54658 14.3275 4.54658 15.1555V22.5304H1.5006C0.671605 22.5304 0.000610347 23.2024 0.000610347 24.0304V33.2663C0.000610347 39.5243 4.72457 44.6922 10.7895 45.4032C11.4825 55.7602 20.1065 63.9801 30.6354 63.9801C41.6163 63.9801 50.5502 55.0472 50.5502 44.0662V32.0863C53.2952 30.8163 61.1071 26.6314 63.3521 19.2854V19.2844C66.0221 10.5245 59.5882 1.04857 59.3142 0.648576Z" fill="black"/>
</svg>

<svg xmlns="http://www.w3.org/2000/svg" width="64" height="64" fill="none" viewBox="0 0 64 64"><path fill="currentColor" fill-rule="evenodd" d="M60.484 18.41c-1.447 4.728-5.926 8.022-8.979 9.787l4.571-14.986a1.5 1.5 0 0 0-2.869-.875l-4.57 14.99-.068-.135-.12-.254a28 28 0 0 1-.309-.676l-.13-.297a34 34 0 0 1-.35-.855l-.07-.176a28 28 0 0 1-.39-1.092c-.032-.097-.062-.199-.093-.297a23 23 0 0 1-.364-1.264 20 20 0 0 1-.197-.835q-.045-.202-.085-.405a18 18 0 0 1-.18-1.098c-.007-.054-.018-.105-.025-.158a17 17 0 0 1-.104-1.267c-.006-.126-.004-.252-.007-.377a15 15 0 0 1 .01-.92q.01-.223.027-.447.036-.452.104-.903c.02-.136.036-.272.061-.406.078-.43.174-.859.303-1.283.13-.433.296-.882.512-1.372 2.287-5.045 7.917-8.225 10.334-9.401 1.468 2.532 4.768 9.159 2.988 15.001M34.03 22.963c-3.633-4.914-2.736-12.262-2.199-15.14 2.518.283 8.318 1.292 12.192 4.752q-.138.378-.245.744a14 14 0 0 0-.356 1.473l-.07.397q-.105.636-.158 1.27c-.006.07-.017.14-.022.212-.033.484-.04.966-.034 1.447l.013.374q.022.59.08 1.173c.01.1.016.2.026.301q.058.487.135.965l-4.953-6.695a1.498 1.498 0 1 0-2.41 1.783l9.737 13.164c-3.469-.642-8.793-2.248-11.736-6.22M3 33.266V25.53h18.443v7.736c0 5.088-4.14 9.228-9.228 9.228-5.08 0-9.215-4.14-9.215-9.228M59.314.65A1.5 1.5 0 0 0 57.53.104c-.36.143-8.199 3.298-12.147 9.712-5.856-4.725-14.299-5.081-14.687-5.094a1.5 1.5 0 0 0-1.499 1.109c-.126.468-3.026 11.551 2.423 18.917 4.376 5.907 12.595 7.38 15.93 7.74v11.578c0 9.326-7.587 16.915-16.915 16.915-8.882 0-16.172-6.887-16.848-15.6 6.001-.775 10.655-5.906 10.655-12.115V24.03a1.5 1.5 0 0 0-1.5-1.5h-3.509v-7.375a1.5 1.5 0 0 0-2.998 0v7.375H7.547v-7.375a1.5 1.5 0 1 0-3 0v7.375H1.5a1.5 1.5 0 0 0-1.5 1.5v9.236c0 6.258 4.724 11.426 10.789 12.137.693 10.357 9.317 18.577 19.845 18.577 10.981 0 19.915-8.933 19.915-19.914v-11.98c2.745-1.27 10.557-5.455 12.802-12.8v-.002c2.67-8.76-3.764-18.235-4.038-18.635" clip-rule="evenodd"/></svg>
